packages/core/src/svgs/diko.svg

<svg width="24" height="24" viewBox="0 0 24 24" fill="none" xmlns="http://www.w3.org/2000/svg">
<g clip-path="url(#clip0_31_9204)">
<path d="M0 0H24V24H0V0Z" fill="#212937"/>
<path d="M9.49303 6.7759C9.543 6.67084 9.62204 6.58229 9.72078 6.52077C9.81952 6.45924 9.93384 6.42731 10.0502 6.42876H12.673C12.8873 6.42876 13.0887 6.54019 13.1959 6.72019L18.7673 15.8102C18.883 15.9988 18.883 16.2259 18.7759 16.4102C18.7216 16.5026 18.6438 16.5789 18.5505 16.6316C18.4572 16.6843 18.3516 16.7114 18.2445 16.7102H15.5016C15.3387 16.7145 15.1845 16.6545 15.0687 16.5388C14.0437 15.5768 12.7595 14.9362 11.3745 14.6959C9.82303 14.4516 7.98874 14.7859 6.18874 16.5388C6.08604 16.639 5.95181 16.7006 5.80884 16.7131C5.66588 16.7256 5.523 16.6882 5.40446 16.6073C5.28838 16.5288 5.20398 16.4115 5.1663 16.2765C5.12862 16.1415 5.14012 15.9975 5.19874 15.8702L9.48874 6.77162L9.49303 6.7759ZM11.143 7.71447L15.8573 15.4288H17.1645L12.3216 7.71447H11.143ZM13.603 14.1388L10.1145 8.31447L7.32874 14.2159C8.62896 13.5264 10.119 13.2811 11.5716 13.5173C12.3002 13.633 12.9859 13.8602 13.603 14.1345V14.1388Z" fill="white"/>
</g>
<defs>
<clipPath id="clip0_31_9204">
<rect width="24" height="24" fill="white"/>
</clipPath>
</defs>
</svg>

<svg xmlns="http://www.w3.org/2000/svg" width="24" height="24" fill="none" viewBox="0 0 24 24"><g clip-path="url(#a)"><path fill="#212937" d="M0 0h24v24H0z"/><path fill="#fff" d="M9.493 6.776a.61.61 0 0 1 .557-.347h2.623a.61.61 0 0 1 .523.291l5.571 9.09a.58.58 0 0 1 .009.6.61.61 0 0 1-.532.3h-2.742a.59.59 0 0 1-.433-.171 7.2 7.2 0 0 0-3.695-1.843c-1.551-.244-3.385.09-5.185 1.843a.62.62 0 0 1-.785.068.59.59 0 0 1-.205-.737l4.29-9.098zm1.65.938 4.714 7.715h1.308l-4.843-7.715zm2.46 6.425-3.488-5.825-2.786 5.902c1.3-.69 2.79-.935 4.243-.699a8.2 8.2 0 0 1 2.031.617z"/></g><defs><clipPath id="a"><path fill="#fff" d="M0 0h24v24H0z"/></clipPath></defs></svg>
